svg/weather/fog_line.svg

<?xml version="1.0" encoding="UTF-8"?>
<svg width="24px" height="24px" viewBox="0 0 24 24" version="1.1" xmlns="http://www.w3.org/2000/svg" xmlns:xlink="http://www.w3.org/1999/xlink">
    <title>fog_line</title>
    <g id="Icon" stroke="none" stroke-width="1" fill="none" fill-rule="evenodd">
        <g id="Weather" transform="translate(-241.000000, -96.000000)">
            <g id="fog_line" transform="translate(241.000000, 96.000000)">
                <path d="M24,0 L24,24 L0,24 L0,0 L24,0 Z M12.5935,23.2578 L12.5819,23.2595 L12.5109,23.295 L12.4919,23.2987 L12.4767,23.295 L12.4057,23.2595 C12.3958,23.2564 12.387,23.259 12.3821,23.2649 L12.378,23.2758 L12.3609,23.7031 L12.3659,23.7235 L12.3769,23.7357 L12.4805,23.8097 L12.4953,23.8136 L12.5071,23.8097 L12.6107,23.7357 L12.6233,23.7197 L12.6267,23.7031 L12.6096,23.2758 C12.6076,23.2657 12.601,23.2593 12.5935,23.2578 Z M12.8584,23.1453 L12.8445,23.1473 L12.6598,23.2397 L12.6499,23.2499 L12.6472,23.2611 L12.6651,23.6906 L12.6699,23.7034 L12.6784,23.7105 L12.8793,23.8032 C12.8914,23.8069 12.9022,23.803 12.9078,23.7952 L12.9118,23.7812 L12.8777,23.1665 C12.8753,23.1546 12.8674,23.147 12.8584,23.1453 Z M12.143,23.1473 C12.1332,23.1424 12.1222,23.1453 12.1156,23.1526 L12.1099,23.1665 L12.0758,23.7812 C12.0751,23.7927 12.0828,23.8019 12.0926,23.8046 L12.1083,23.8032 L12.3092,23.7105 L12.3186,23.7024 L12.3225,23.6906 L12.3404,23.2611 L12.3372,23.2485 L12.3278,23.2397 L12.143,23.1473 Z" id="MingCute" fill-rule="nonzero"></path>
                <path d="M11.5002,2 C7.93832,2 5.04562,4.86491 5.00069,8.41609 C3.41671,9.10784 2.26086,10.5955 2.0388,12.3763 C1.97046,12.9243 2.35933,13.424 2.90737,13.4923 C3.45541,13.5607 3.95509,13.1718 4.02343,12.6237 C4.17724,11.3903 5.08349,10.3862 6.26868,10.0896 C6.75526,9.9678 7.0831,9.50471 7.02746,8.99923 C7.00945,8.83564 7.00016,8.66909 7.00016,8.5 C7.00016,6.01472 9.01488,4 11.5002,4 C13.5761,4 15.3261,5.40663 15.8443,7.32051 C15.9479,7.7033 16.2655,7.98914 16.6553,8.05324 C18.5526,8.36524 20.0002,10.0145 20.0002,12 C20.0002,12.1357 19.9934,12.2695 19.9804,12.4012 C19.9258,12.9508 20.3271,13.4405 20.8767,13.4951 C21.4263,13.5497 21.916,13.1484 21.9706,12.5988 C21.9902,12.4016 22.0002,12.2018 22.0002,12 C22.0002,9.23462 20.1302,6.90766 17.5857,6.21198 C16.6601,3.75154 14.2858,2 11.5002,2 Z M3.0001,16 C3.0001,15.4477 3.44782,15 4.0001,15 L20.0001,15 C20.5524,15 21.0001,15.4477 21.0001,16 C21.0001,16.5523 20.5524,17 20.0001,17 L4.0001,17 C3.44782,17 3.0001,16.5523 3.0001,16 Z M7.0001,20 C7.0001,19.4477 7.44782,19 8.0001,19 L17.0001,19 C17.5524,19 18.0001,19.4477 18.0001,20 C18.0001,20.5523 17.5524,21 17.0001,21 L8.0001,21 C7.44782,21 7.0001,20.5523 7.0001,20 Z" id="形状" fill="#09244B"></path>
            </g>
        </g>
    </g>
</svg>

<svg xmlns="http://www.w3.org/2000/svg" width="24" height="24"><g fill="none" fill-rule="evenodd"><path d="M24 0v24H0V0h24ZM12.594 23.258l-.012.002-.071.035-.02.004-.014-.004-.071-.036c-.01-.003-.019 0-.024.006l-.004.01-.017.428.005.02.01.013.104.074.015.004.012-.004.104-.074.012-.016.004-.017-.017-.427c-.002-.01-.009-.017-.016-.018Zm.264-.113-.014.002-.184.093-.01.01-.003.011.018.43.005.012.008.008.201.092c.012.004.023 0 .029-.008l.004-.014-.034-.614c-.003-.012-.01-.02-.02-.022Zm-.715.002a.023.023 0 0 0-.027.006l-.006.014-.034.614c0 .012.007.02.017.024l.015-.002.201-.093.01-.008.003-.011.018-.43-.003-.012-.01-.01-.184-.092Z"/><path fill="#09244B" d="M11.5 2A6.5 6.5 0 0 0 5 8.416a5.004 5.004 0 0 0-2.961 3.96 1 1 0 1 0 1.984.248A3.004 3.004 0 0 1 6.27 10.09 1.01 1.01 0 0 0 7.027 9a4.5 4.5 0 0 1 8.817-1.679c.104.382.422.668.811.732a4.001 4.001 0 0 1 3.325 4.348 1 1 0 1 0 1.99.198 6.002 6.002 0 0 0-4.385-6.387A6.502 6.502 0 0 0 11.5 2ZM3 16a1 1 0 0 1 1-1h16a1 1 0 1 1 0 2H4a1 1 0 0 1-1-1Zm4 4a1 1 0 0 1 1-1h9a1 1 0 1 1 0 2H8a1 1 0 0 1-1-1Z"/></g></svg>
